symbols/web/emergency_recording/materialsymbolsoutlined/emergency_recording_wght700grad200_20px.svg

<svg xmlns="http://www.w3.org/2000/svg" height="20" width="20"><path d="M3.521 17.625q-1.229 0-2.073-.865-.844-.864-.844-2.052V5.292q0-1.188.844-2.052.844-.865 2.073-.865h9.396q1.229 0 2.073.865.843.864.843 2.052V8.5l3.563-3.562v10.124L15.833 11.5v3.208q0 1.188-.843 2.052-.844.865-2.073.865Zm0-2.917h9.396V5.292H3.521v9.416Zm0 0V5.292v9.416Zm3.417-.5h2.583v-1.979l1.75 1.021L12.562 11l-1.729-1 1.729-1-1.291-2.25-1.75 1.021V5.792H6.938v1.979l-1.792-.979-1.292 2.25L5.625 10l-1.729 1 1.292 2.25 1.75-1.021Z"/></svg>

<svg xmlns="http://www.w3.org/2000/svg" height="20" width="20"><path d="M3.521 17.625Q2.292 17.625 1.448 16.76Q0.604 15.896 0.604 14.708V5.292Q0.604 4.104 1.448 3.24Q2.292 2.375 3.521 2.375H12.917Q14.146 2.375 14.99 3.24Q15.833 4.104 15.833 5.292V8.5L19.396 4.938V15.062L15.833 11.5V14.708Q15.833 15.896 14.99 16.76Q14.146 17.625 12.917 17.625ZM3.521 14.708H12.917Q12.917 14.708 12.917 14.708Q12.917 14.708 12.917 14.708V5.292Q12.917 5.292 12.917 5.292Q12.917 5.292 12.917 5.292H3.521Q3.521 5.292 3.521 5.292Q3.521 5.292 3.521 5.292V14.708Q3.521 14.708 3.521 14.708Q3.521 14.708 3.521 14.708ZM3.521 14.708Q3.521 14.708 3.521 14.708Q3.521 14.708 3.521 14.708V5.292Q3.521 5.292 3.521 5.292Q3.521 5.292 3.521 5.292Q3.521 5.292 3.521 5.292Q3.521 5.292 3.521 5.292V14.708Q3.521 14.708 3.521 14.708Q3.521 14.708 3.521 14.708ZM6.938 14.208H9.521V12.229L11.271 13.25L12.562 11L10.833 10L12.562 9L11.271 6.75L9.521 7.771V5.792H6.938V7.771L5.146 6.792L3.854 9.042L5.625 10L3.896 11L5.188 13.25L6.938 12.229Z"/></svg>
